public/svgs/icons/pwa.svg

<svg fill="none" height="74" viewBox="0 0 104 74" width="104" xmlns="http://www.w3.org/2000/svg"><path d="m19.28 44.9h-17.08c-.18565 0-.3637-.0738-.49497-.205-.13128-.1313-.20503-.3093-.20503-.495v-20.2h17.78v-1.5h-17.78v-20.3c.00259-.18485.07717-.3614.20788-.49212.13072-.13071.30727-.20529.49212-.20788h20.25v19.24h1.55v-19.24h20.2c.0919 0 .183.01811.2679.05328.0849.03518.1621.08674.2271.15175.065.065.1165.14216.1517.22709s.0533.17595.0533.26788v18.54h1.5v-18.54c-.0026-.58267-.2353-1.14072-.6473-1.552728-.412-.412012-.97-.64464141-1.5527-.647272h-42c-.58267.00263059-1.14072.23526-1.552728.647272-.412012.412008-.64464141.970058-.647272 1.552728v42c0 .5835.231785 1.1431.644365 1.5556.204289.2043.446815.3664.713735.4769.26691.1106.55299.1675.8419.1675h17.08z" fill="#ed6a5e"/><path d="m26.4095 27.5901c.7677 0 1.39-.6223 1.39-1.39s-.6223-1.39-1.39-1.39c-.7676 0-1.39.6223-1.39 1.39s.6224 1.39 1.39 1.39z" fill="#ed6a5e"/><path d="m99.36 54.7499h-20.91c-.9813 0-1.9224-.3898-2.6163-1.0837s-1.0837-1.635-1.0837-2.6163v-40.71c0-.98131.3898-1.92242 1.0837-2.6163.6939-.69389 1.635-1.08371 2.6163-1.08371h20.91c.981 0 1.922.38982 2.616 1.08371.694.69388 1.084 1.63499 1.084 2.6163v40.71c0 .9813-.39 1.9224-1.084 2.6163s-1.635 1.0837-2.616 1.0837zm-20.91-46.61c-.5827.00263-1.1407.23526-1.5527.64727s-.6447.97006-.6473 1.55273v40.71c.0026.5827.2353 1.1407.6473 1.5527.412.4121.97.6447 1.5527.6473h20.91c.5827-.0026 1.141-.2352 1.553-.6473.412-.412.644-.97.647-1.5527v-40.71c-.003-.58267-.235-1.14072-.647-1.55273s-.9703-.64464-1.553-.64727z" fill="#bad8db"/><path d="m90.0003 54v17.87h-70v-39.42h55.5v-1.45h-55.5v-9.51h55.5v-1.49h-55.64c-.1742-.0013-.3469.0319-.5082.0976-.1613.0658-.308.1628-.4317.2855-.1236.1227-.2217.2687-.2887.4295s-.1014.3332-.1014.5074v50.73c0 .1742.0344.3467.1014.5075s.1651.3068.2887.4295c.1237.1227.2704.2197.4317.2854.1613.0658.334.099.5082.0976h70.33c.351.0001.6878-.1387.9369-.386.2492-.2472.3904-.583.3931-.934v-18.05z" fill="#bad8db"/><path d="m99.36 54.7499h-20.91c-.9813 0-1.9224-.3898-2.6163-1.0837s-1.0837-1.635-1.0837-2.6163v-40.71c0-.98131.3898-1.92242 1.0837-2.6163.6939-.69389 1.635-1.08371 2.6163-1.08371h20.91c.981 0 1.922.38982 2.616 1.08371.694.69388 1.084 1.63499 1.084 2.6163v40.71c0 .9813-.39 1.9224-1.084 2.6163s-1.635 1.0837-2.616 1.0837zm-20.91-46.61c-.5827.00263-1.1407.23526-1.5527.64727s-.6447.97006-.6473 1.55273v40.71c.0026.5827.2353 1.1407.6473 1.5527.412.4121.97.6447 1.5527.6473h20.91c.5827-.0026 1.141-.2352 1.553-.6473.412-.412.644-.97.647-1.5527v-40.71c-.003-.58267-.235-1.14072-.647-1.55273s-.9703-.64464-1.553-.64727z" fill="#bad8db"/><g fill="#ed6a5e"><path d="m94.56 13.5901h-11.31c-.1989 0-.3897-.079-.5303-.2196-.1407-.1407-.2197-.3315-.2197-.5304s.079-.3897.2197-.5303c.1406-.1407.3314-.2197.5303-.2197h11.31c.1989 0 .3897.079.5303.2197.1407.1406.2197.3314.2197.5303s-.079.3897-.2197.5304c-.1406.1406-.3314.2196-.5303.2196z"/><path d="m59.5697 55.77c-.198-.0043-.3872-.0828-.53-.22-.1405-.1406-.2194-.3313-.2194-.53 0-.1988.0789-.3894.2194-.53l4.05-4.06-4.05-4c-.1325-.1422-.2047-.3302-.2012-.5245.0034-.1943.0821-.3797.2195-.5171s.3228-.2162.5171-.2196.3824.0687.5246.2012l5.11 5.11-5.11 5.07c-.1429.1372-.3321.2157-.53.22z"/><path d="m47.4898 55.7699c-.1988-.0002-.3894-.0793-.53-.22l-5.12-5.12 5.16-5.11c.1461-.083.3158-.1146.4819-.0897s.3191.1048.4344.227.1862.2796.2014.4469-.0263.3348-.1177.4758l-4.06 4 4.06 4.11c.1405.1406.2194.3312.2194.53s-.0789.3894-.2194.53c-.1377.1326-.3189.2108-.51.22z"/><path d="m51.0997 58.8199c-.0797.0096-.1603.0096-.24 0-.0992-.0312-.1909-.0825-.2694-.1506-.0786-.0681-.1423-.1516-.1873-.2454-.045-.0937-.0703-.1957-.0743-.2996s.0133-.2075.051-.3044l4.8-14.66c.0222-.1023.0657-.1989.1276-.2834.0618-.0846.1407-.1552.2315-.2074s.1916-.0848.2957-.0957c.1042-.0109.2095.0002.3092.0325.0996.0322.1914.085.2694.1549.078.07.1405.1554.1835.251.0429.0955.0654.199.0659.3037.0006.1047-.0208.2084-.0628.3044l-4.79 14.68c-.0498.1496-.1449.2801-.2721.3732-.1272.0932-.2803.1445-.4379.1468z"/></g></svg>

<svg width="104" height="74" viewBox="0 0 104 74" fill="none" xmlns="http://www.w3.org/2000/svg">
<path d="M19.28 44.9H2.2C2.01435 44.9 1.8363 44.8262 1.70503 44.695C1.57375 44.5637 1.5 44.3857 1.5 44.2V24H19.28V22.5H1.5V2.2C1.50259 2.01515 1.57717 1.8386 1.70788 1.70788C1.8386 1.57717 2.01515 1.50259 2.2 1.5H22.45V20.74H24V1.5H44.2C44.2919 1.5 44.383 1.51811 44.4679 1.55328C44.5528 1.58846 44.63 1.64002 44.695 1.70503C44.76 1.77003 44.8115 1.84719 44.8467 1.93212C44.8819 2.01705 44.9 2.10807 44.9 2.2V20.74H46.4V2.2C46.3974 1.61733 46.1647 1.05928 45.7527 0.647272C45.3407 0.23526 44.7827 0.00263059 44.2 0H2.2C1.61733 0.00263059 1.05928 0.23526 0.647272 0.647272C0.23526 1.05928 0.00263059 1.61733 0 2.2V44.2C0 44.7835 0.231785 45.3431 0.644365 45.7556C0.848654 45.9599 1.09118 46.122 1.3581 46.2325C1.62501 46.3431 1.91109 46.4 2.2 46.4H19.28V44.9Z" fill="#ED6A5E"/>
<path d="M26.4095 27.5901C27.1772 27.5901 27.7995 26.9678 27.7995 26.2001C27.7995 25.4324 27.1772 24.8101 26.4095 24.8101C25.6419 24.8101 25.0195 25.4324 25.0195 26.2001C25.0195 26.9678 25.6419 27.5901 26.4095 27.5901Z" fill="#ED6A5E"/>
<path d="M99.36 54.7499H78.45C77.4687 54.7499 76.5276 54.3601 75.8337 53.6662C75.1398 52.9723 74.75 52.0312 74.75 51.0499V10.3399C74.75 9.35859 75.1398 8.41748 75.8337 7.7236C76.5276 7.02971 77.4687 6.63989 78.45 6.63989H99.36C100.341 6.63989 101.282 7.02971 101.976 7.7236C102.67 8.41748 103.06 9.35859 103.06 10.3399V51.0499C103.06 52.0312 102.67 52.9723 101.976 53.6662C101.282 54.3601 100.341 54.7499 99.36 54.7499ZM78.45 8.1399C77.8673 8.14253 77.3093 8.37516 76.8973 8.78717C76.4853 9.19918 76.2526 9.75723 76.25 10.3399V51.0499C76.2526 51.6326 76.4853 52.1906 76.8973 52.6026C77.3093 53.0147 77.8673 53.2473 78.45 53.2499H99.36C99.9427 53.2473 100.501 53.0147 100.913 52.6026C101.325 52.1906 101.557 51.6326 101.56 51.0499V10.3399C101.557 9.75723 101.325 9.19918 100.913 8.78717C100.501 8.37516 99.9427 8.14253 99.36 8.1399H78.45Z" fill="#BAD8DB"/>
<path d="M90.0003 54V71.87H20.0003V32.45H75.5003V31H20.0003V21.49H75.5003V20H19.8603C19.6861 19.9987 19.5134 20.0319 19.3521 20.0976C19.1908 20.1634 19.0441 20.2604 18.9204 20.3831C18.7968 20.5058 18.6987 20.6518 18.6317 20.8126C18.5647 20.9734 18.5303 21.1458 18.5303 21.32V72.05C18.5303 72.2242 18.5647 72.3967 18.6317 72.5575C18.6987 72.7183 18.7968 72.8643 18.9204 72.987C19.0441 73.1097 19.1908 73.2067 19.3521 73.2724C19.5134 73.3382 19.6861 73.3714 19.8603 73.37H90.1903C90.5413 73.3701 90.8781 73.2313 91.1272 72.984C91.3764 72.7368 91.5176 72.401 91.5203 72.05V54H90.0003Z" fill="#BAD8DB"/>
<path d="M99.36 54.7499H78.45C77.4687 54.7499 76.5276 54.3601 75.8337 53.6662C75.1398 52.9723 74.75 52.0312 74.75 51.0499V10.3399C74.75 9.35859 75.1398 8.41748 75.8337 7.7236C76.5276 7.02971 77.4687 6.63989 78.45 6.63989H99.36C100.341 6.63989 101.282 7.02971 101.976 7.7236C102.67 8.41748 103.06 9.35859 103.06 10.3399V51.0499C103.06 52.0312 102.67 52.9723 101.976 53.6662C101.282 54.3601 100.341 54.7499 99.36 54.7499ZM78.45 8.1399C77.8673 8.14253 77.3093 8.37516 76.8973 8.78717C76.4853 9.19918 76.2526 9.75723 76.25 10.3399V51.0499C76.2526 51.6326 76.4853 52.1906 76.8973 52.6026C77.3093 53.0147 77.8673 53.2473 78.45 53.2499H99.36C99.9427 53.2473 100.501 53.0147 100.913 52.6026C101.325 52.1906 101.557 51.6326 101.56 51.0499V10.3399C101.557 9.75723 101.325 9.19918 100.913 8.78717C100.501 8.37516 99.9427 8.14253 99.36 8.1399H78.45Z" fill="#BAD8DB"/>
<path d="M94.56 13.5901H83.25C83.0511 13.5901 82.8603 13.5111 82.7197 13.3705C82.579 13.2298 82.5 13.039 82.5 12.8401C82.5 12.6412 82.579 12.4504 82.7197 12.3098C82.8603 12.1691 83.0511 12.0901 83.25 12.0901H94.56C94.7589 12.0901 94.9497 12.1691 95.0903 12.3098C95.231 12.4504 95.31 12.6412 95.31 12.8401C95.31 13.039 95.231 13.2298 95.0903 13.3705C94.9497 13.5111 94.7589 13.5901 94.56 13.5901Z" fill="#ED6A5E"/>
<path d="M59.5697 55.77C59.3717 55.7657 59.1825 55.6872 59.0397 55.55C58.8992 55.4094 58.8203 55.2187 58.8203 55.02C58.8203 54.8212 58.8992 54.6306 59.0397 54.49L63.0897 50.43L59.0397 46.43C58.9072 46.2878 58.835 46.0998 58.8385 45.9055C58.8419 45.7112 58.9206 45.5258 59.058 45.3884C59.1954 45.251 59.3808 45.1722 59.5751 45.1688C59.7694 45.1654 59.9575 45.2375 60.0997 45.37L65.2097 50.48L60.0997 55.55C59.9568 55.6872 59.7676 55.7657 59.5697 55.77Z" fill="#ED6A5E"/>
<path d="M47.4898 55.7699C47.291 55.7697 47.1004 55.6906 46.9598 55.5499L41.8398 50.4299L46.9998 45.3199C47.1459 45.2369 47.3156 45.2053 47.4817 45.2302C47.6478 45.2551 47.8008 45.335 47.9161 45.4572C48.0314 45.5794 48.1023 45.7368 48.1175 45.9041C48.1327 46.0714 48.0912 46.2389 47.9998 46.3799L43.9398 50.3799L47.9998 54.4899C48.1403 54.6305 48.2192 54.8211 48.2192 55.0199C48.2192 55.2187 48.1403 55.4093 47.9998 55.5499C47.8621 55.6825 47.6809 55.7607 47.4898 55.7699Z" fill="#ED6A5E"/>
<path d="M51.0997 58.8199C51.02 58.8295 50.9394 58.8295 50.8597 58.8199C50.7605 58.7887 50.6688 58.7374 50.5903 58.6693C50.5117 58.6012 50.448 58.5177 50.403 58.4239C50.358 58.3302 50.3327 58.2282 50.3287 58.1243C50.3247 58.0204 50.342 57.9168 50.3797 57.8199L55.1797 43.1599C55.2019 43.0576 55.2454 42.961 55.3073 42.8765C55.3691 42.7919 55.448 42.7213 55.5388 42.6691C55.6296 42.6169 55.7304 42.5843 55.8345 42.5734C55.9387 42.5625 56.044 42.5736 56.1437 42.6059C56.2433 42.6381 56.3351 42.6909 56.4131 42.7608C56.4911 42.8308 56.5536 42.9162 56.5966 43.0118C56.6395 43.1073 56.662 43.2108 56.6625 43.3155C56.6631 43.4202 56.6417 43.5239 56.5997 43.6199L51.8097 58.2999C51.7599 58.4495 51.6648 58.58 51.5376 58.6731C51.4104 58.7663 51.2573 58.8176 51.0997 58.8199Z" fill="#ED6A5E"/>
</svg>
